merchants/img/coppay.svg

<svg height="259" viewBox="0 0 1354 259" width="1354" xmlns="http://www.w3.org/2000/svg" xmlns:xlink="http://www.w3.org/1999/xlink"><linearGradient id="a" x1="0%" x2="100%" y1="50%" y2="50%"><stop offset="0" stop-color="#e9c150"/><stop offset="1" stop-color="#f7903b"/></linearGradient><g fill="none" fill-rule="evenodd"><g transform="translate(0 -1)"><path d="m282.613156 257.788674c-27.85256-4.7-50.687563-16.4-71.269785-36.5-18.124644-17.7-28.262157-35-35.430095-60.6-1.012841-3.758623-3.166933-16.657774-3.177962-29.824468-.011271-13.456589 2.142821-27.184699 3.177962-30.9755321 8.396728-30.1 23.2446-52.8 47.103594-71.4 35.532494-27.89999998 86.117658-35.29999998 129.842081-18.79999998 17.30545 6.49999998 36.966081 19.49999998 48.946778 32.29999998 11.161503 11.9 22.835003 30.4 26.214174 41.4 1.228789 4-1.535987-1.3622898-4.505562 2.8377102-8.08953 11.5-18.329442 23.5622899-33.791708 23.5622899-15.15507 0-26.214174-6.451975-36.863682-19.3519752-11.059105-13.3-25.087784-20.9480249-40.959647-24.0480249-9.727916-2-15.052671-2-24.882986 0-22.937402 4.6-40.345252 19.7-48.946778 42.4000001-2.662377 7.1-3.276772 26.5-1.023991 34.8 3.071974 11.2 8.191929 19.8 17.40785 28.7 9.113521 9 17.919845 14 29.388547 17 8.499126 2.2 28.364555 1.6 35.634892-1 12.595092-4.5 17.817447-7.9 28.671753-18.6 5.939149-5.8 12.674923-10.451479 14.927703-11.651479 20.88942-10.6 49.035442-5.071345 62.552126 9.928655 4.403162 4.9 5.258658 4.522824-2.114079 19.322824-5.631951 11.3-14.540674 23.9-23.039801 32.8-9.011122 9.5-29.286147 23-42.700432 28.6-24.882985 10.3-49.970769 13.3-75.160952 9.1z" fill="url(#a)" transform="matrix(-1 0 0 1 601.735314 0)"/><path d="m107.5 257.777348c-27.2-4.7-49.5-16.4-69.6-36.5-17.7-17.7-27.6-35-34.6-60.6-1.01713038-3.865096-2.5774478-16.839558-2.56002397-30.376824.01683693-13.08128 1.57715435-26.737415 2.56002397-30.4231762 8.2-30.1 22.7-52.8 46-71.4 34.7-27.89999995 84.1-35.29999995 126.8-18.79999995 16.9 6.49999995 36.1 19.49999995 47.8 32.29999995 10.9 11.9 22.3 30.4 25.6 41.4 1.2 4 1.1 4.4-1.8 8.6-7.9 11.5000002-20.5 17.8000002-35.6 17.8000002-14.8 0-26.6-6-37-18.9000002-10.8-13.3-23.5-21.4-39-24.5-9.5-2-14.7-2-24.3 0-22.4 4.6-39.4 19.7-47.8 42.4000002-2.6 7.1-3.2 26.5-1 34.8 3 11.2 8 19.8 17 28.7 8.9 9 17.5 14 28.7 17 8.3 2.2 27.7 1.6 34.8-1 12.3-4.5 17.4-7.9 28-18.6 5.8-5.8 12.3-11.5 14.5-12.7 20.4-10.6 49.2-6.7 62.4 8.3 4.3 4.9 3.9 7.2-3.3 22-5.5 11.3-14.2 23.9-22.5 32.8-8.8 9.5-28.6 23-41.7 28.6-24.3 10.3-48.8 13.3-73.4 9.1z" fill="#2c77bc"/></g><g transform="translate(528 42)"><path d="m0 84.7969095c0-33.3046358 5.89988081-55.0353201 19.1156138-67.5540839 13.4517283-12.99116997 31.1513707-17.2428256 58.7628129-17.2428256 17.9356377 0 33.7473183 1.88962472 47.6710373 5.90507726l-7.315853 33.54083884c-8.495828-3.0706402-19.3516086-4.4878587-32.3313464-4.4878587-18.1716329 0-26.6674613 1.1810154-34.9272944 8.0309051-7.7878427 6.8498896-10.3837902 19.6048565-10.3837902 42.2803532 0 22.6754963 2.5959475 35.4304633 10.3837902 42.7527593s16.9916567 8.739514 34.9272944 8.739514c12.2717521 0 23.1275324-1.417218 32.3313464-4.487858l7.315853 34.249448c-13.923719 3.543046-29.9713949 5.432671-47.6710373 5.432671-27.375447 0-47.1990465-6.377484-59.4707986-19.13245-12.27175206-12.754967-18.4076281-35.430464-18.4076281-68.0264905zm196.584029 87.1589405c-20.29559 0-35.16329-4.724062-44.603099-14.172186-9.203814-9.684326-13.923719-26.454746-13.923719-50.311258s4.719905-40.1545252 13.923719-49.3664457c9.439809-9.2119206 24.307509-13.6997793 44.603099-13.6997793 20.531585 0 35.63528 4.4878587 44.839094 13.6997793 9.439809 9.2119205 14.159714 25.5099337 14.159714 49.3664457s-4.719905 40.626932-14.159714 50.311258c-9.43981 9.448124-24.307509 14.172186-44.839094 14.172186zm0-99.2052981c-8.967819 0-14.8677 2.1258278-17.699643 6.3774834-2.831943 4.0154526-4.247914 13.6997793-4.247914 29.0529797 0 14.880795 1.415971 24.328919 4.247914 28.816777 3.067938 4.487859 8.967819 6.613687 17.699643 6.613687 8.731823 0 14.631704-2.125828 17.699642-6.613687 3.067938-4.487858 4.483909-13.935982 4.483909-28.816777-.94398-32.1236199-3.775923-34.9580569-22.183551-35.4304631zm148.205006 99.2052981c-9.203814 0-17.935638-1.889625-26.431466-5.432671v47.476821h-36.343266v-161.0905077c14.867699-5.6688742 33.039332-8.5033113 54.750894-8.5033113 21.239571 0 36.343265 4.7240618 45.54708 13.9359824 9.203814 9.2119205 13.687723 25.7461368 13.687723 49.8388516 0 46.295806-18.879619 63.774835-51.210965 63.774835zm-8.023838-97.3156734c-7.315853 0-13.451729.9448124-18.407628 2.8344371v55.5077263c0 5.432671 8.023837 9.21192 18.643623 9.21192 17.227652 0 22.655542-7.558498 22.655542-33.068432 0-14.1721856-1.651966-23.3841061-4.719904-27.8719649-3.067938-4.4878587-9.203815-6.6136865-18.171633-6.6136865z" fill="#2a384e"/><path d="m465.033748 36.5984252v49.3700787h40.632327c11.103019 0 16.536412-8.031496 16.536412-24.0944882 0-16.7716535-5.433393-25.2755905-16.063943-25.2755905zm0 80.7874018v51.259842h-38.033748v-164.645669h92.367673c28.58437 0 44.648313 21.9685039 44.648313 57.8740157 0 15.8267717-4.015986 29.0551182-11.811723 39.6850393-7.795737 10.629921-18.662522 15.826772-33.072824 15.826772zm224.186501-25.9842522v71.1023622c-17.245116 6.377953-36.380107 9.448819-57.404974 9.448819-20.079929 0-33.545293-2.834646-40.868561-8.267717-7.323268-5.43307-10.866785-16.062992-10.866785-31.889763 0-15.826772 3.779751-26.220473 11.339254-31.417323 7.795737-5.4330711 19.60746-8.0314963 35.907638-8.0314963 8.268206 0 17.48135.9448819 27.403197 3.0708661 0-8.7401574-1.653641-14.4094488-5.197158-17.2440945-3.307283-2.8346456-10.630551-4.2519685-22.206039-4.2519685-12.520427 0-25.040853 1.8897638-37.561279 5.6692914l-5.669627-28.8188977c16.772646-4.2519685 34.017762-6.3779527 51.971581-6.3779527 37.561278 0 53.152753 12.0472441 53.152753 47.007874zm-34.490231 50.3149602v-22.913385c-4.25222-1.181103-10.866785-1.653544-19.60746-1.653544-13.937833 0-17.717585 2.125985-17.717585 13.464567 0 12.283465 3.071048 14.409449 17.245116 14.409449 7.559502 0 14.174067-1.181102 20.079929-3.307087zm135.12611-93.7795271h36.143872c-16.300178 56.9291341-37.325044 112.4409451-63.310835 166.0629921h-39.923623c5.905861-9.92126 12.520426-23.149606 19.843694-39.448819-11.339254-40.866142-25.277087-83.1496062-41.577264-126.6141731h36.616341c9.213143 24.3307086 18.190053 52.2047241 26.458259 84.0944881 11.811723-33.7795275 20.316163-61.6535432 25.749556-84.0944881z" fill="#2c77bd"/></g></g></svg>

<?xml version="1.0" encoding="UTF-8"?>
<svg width="1354px" height="259px" viewBox="0 0 1354 259" version="1.1" xmlns="http://www.w3.org/2000/svg" xmlns:xlink="http://www.w3.org/1999/xlink">
    <!-- Generator: Sketch 52.4 (67378) - http://www.bohemiancoding.com/sketch -->
    <title>Group</title>
    <desc>Created with Sketch.</desc>
    <defs>
        <linearGradient x1="-1.11022302e-14%" y1="50%" x2="100%" y2="50%" id="linearGradient-1">
            <stop stop-color="#E9C150" offset="0%"></stop>
            <stop stop-color="#F7903B" offset="100%"></stop>
        </linearGradient>
    </defs>
    <g id="Page-1" stroke="none" stroke-width="1" fill="none" fill-rule="evenodd">
        <g id="Group" transform="translate(0.000000, -1.000000)">
            <g id="Group-3">
                <path d="M282.613156,257.788674 C254.760596,253.088674 231.925593,241.388674 211.343371,221.288674 C193.218727,203.588674 183.081214,186.288674 175.913276,160.688674 C174.900435,156.930051 172.746343,144.0309 172.735314,130.864206 C172.724043,117.407617 174.878135,103.679507 175.913276,99.8886739 C184.310004,69.7886739 199.157876,47.0886739 223.01687,28.4886739 C258.549364,0.588673923 309.134528,-6.81132608 352.858951,9.68867392 C370.164401,16.1886739 389.825032,29.1886739 401.805729,41.9886739 C412.967232,53.8886739 424.640732,72.3886739 428.019903,83.3886739 C429.248692,87.3886739 426.483916,82.0263841 423.514341,86.2263841 C415.424811,97.7263841 405.184899,109.788674 389.722633,109.788674 C374.567563,109.788674 363.508459,103.336699 352.858951,90.4366988 C341.799846,77.1366988 327.771167,69.4886739 311.899304,66.3886739 C302.171388,64.3886739 296.846633,64.3886739 287.016318,66.3886739 C264.078916,70.9886739 246.671066,86.0886739 238.06954,108.788674 C235.407163,115.888674 234.792768,135.288674 237.045549,143.588674 C240.117523,154.788674 245.237478,163.388674 254.453399,172.288674 C263.56692,181.288674 272.373244,186.288674 283.841946,189.288674 C292.341072,191.488674 312.206501,190.888674 319.476838,188.288674 C332.07193,183.788674 337.294285,180.388674 348.148591,169.688674 C354.08774,163.888674 360.823514,159.237195 363.076294,158.037195 C383.965714,147.437195 412.111736,152.96585 425.62842,167.96585 C430.031582,172.86585 430.887078,172.488674 423.514341,187.288674 C417.88239,198.588674 408.973667,211.188674 400.47454,220.088674 C391.463418,229.588674 371.188393,243.088674 357.774108,248.688674 C332.891123,258.988674 307.803339,261.988674 282.613156,257.788674 Z" id="Path" fill="url(#linearGradient-1)" transform="translate(300.867657, 130.311850) scale(-1, 1) translate(-300.867657, -130.311850) "></path>
                <path d="M107.5,257.777348 C80.3,253.077348 58,241.377348 37.9,221.277348 C20.2,203.577348 10.3,186.277348 3.3,160.677348 C2.28286962,156.812252 0.722552204,143.83779 0.739976029,130.300524 C0.756812955,117.219244 2.31713038,103.563109 3.3,99.8773478 C11.5,69.7773478 26,47.0773478 49.3,28.4773478 C84,0.577347845 133.4,-6.82265215 176.1,9.67734785 C193,16.1773478 212.2,29.1773478 223.9,41.9773478 C234.8,53.8773478 246.2,72.3773478 249.5,83.3773478 C250.7,87.3773478 250.6,87.7773478 247.7,91.9773478 C239.8,103.477348 227.2,109.777348 212.1,109.777348 C197.3,109.777348 185.5,103.777348 175.1,90.8773478 C164.3,77.5773478 151.6,69.4773478 136.1,66.3773478 C126.6,64.3773478 121.4,64.3773478 111.8,66.3773478 C89.4,70.9773478 72.4,86.0773478 64,108.777348 C61.4,115.877348 60.8,135.277348 63,143.577348 C66,154.777348 71,163.377348 80,172.277348 C88.9,181.277348 97.5,186.277348 108.7,189.277348 C117,191.477348 136.4,190.877348 143.5,188.277348 C155.8,183.777348 160.9,180.377348 171.5,169.677348 C177.3,163.877348 183.8,158.177348 186,156.977348 C206.4,146.377348 235.2,150.277348 248.4,165.277348 C252.7,170.177348 252.3,172.477348 245.1,187.277348 C239.6,198.577348 230.9,211.177348 222.6,220.077348 C213.8,229.577348 194,243.077348 180.9,248.677348 C156.6,258.977348 132.1,261.977348 107.5,257.777348 Z" id="Path" fill="#2C77BC"></path>
            </g>
            <g id="Group-2" transform="translate(528.000000, 43.000000)">
                <path d="M0,84.7969095 C0,51.4922737 5.89988081,29.7615894 19.1156138,17.2428256 C32.5673421,4.25165563 50.2669845,0 77.8784267,0 C95.8140644,0 111.625745,1.88962472 125.549464,5.90507726 L118.233611,39.4459161 C109.737783,36.3752759 98.8820024,34.9580574 85.9022646,34.9580574 C67.7306317,34.9580574 59.2348033,36.1390728 50.9749702,42.9889625 C43.1871275,49.8388521 40.59118,62.593819 40.59118,85.2693157 C40.59118,107.944812 43.1871275,120.699779 50.9749702,128.022075 C58.7628129,135.344371 67.9666269,136.761589 85.9022646,136.761589 C98.1740167,136.761589 109.029797,135.344371 118.233611,132.273731 L125.549464,166.523179 C111.625745,170.066225 95.5780691,171.95585 77.8784267,171.95585 C50.5029797,171.95585 30.6793802,165.578366 18.4076281,152.8234 C6.13587604,140.068433 0,117.392936 0,84.7969095 Z M196.584029,171.95585 C176.288439,171.95585 161.420739,167.231788 151.98093,157.783664 C142.777116,148.099338 138.057211,131.328918 138.057211,107.472406 C138.057211,83.615894 142.777116,67.3178808 151.98093,58.1059603 C161.420739,48.8940397 176.288439,44.406181 196.584029,44.406181 C217.115614,44.406181 232.219309,48.8940397 241.423123,58.1059603 C250.862932,67.3178808 255.582837,83.615894 255.582837,107.472406 C255.582837,131.328918 250.862932,148.099338 241.423123,157.783664 C231.983313,167.231788 217.115614,171.95585 196.584029,171.95585 Z M196.584029,72.7505519 C187.61621,72.7505519 181.716329,74.8763797 178.884386,79.1280353 C176.052443,83.1434879 174.636472,92.8278146 174.636472,108.181015 C174.636472,123.06181 176.052443,132.509934 178.884386,136.997792 C181.952324,141.485651 187.852205,143.611479 196.584029,143.611479 C205.315852,143.611479 211.215733,141.485651 214.283671,136.997792 C217.351609,132.509934 218.76758,123.06181 218.76758,108.181015 C217.8236,76.0573951 214.991657,73.2229581 196.584029,72.7505519 Z M344.789035,171.95585 C335.585221,171.95585 326.853397,170.066225 318.357569,166.523179 L318.357569,214 L282.014303,214 L282.014303,52.9094923 C296.882002,47.2406181 315.053635,44.406181 336.765197,44.406181 C358.004768,44.406181 373.108462,49.1302428 382.312277,58.3421634 C391.516091,67.5540839 396,84.0883002 396,108.181015 C396,154.476821 377.120381,171.95585 344.789035,171.95585 Z M336.765197,74.6401766 C329.449344,74.6401766 323.313468,75.584989 318.357569,77.4746137 L318.357569,132.98234 C318.357569,138.415011 326.381406,142.19426 337.001192,142.19426 C354.228844,142.19426 359.656734,134.635762 359.656734,109.125828 C359.656734,94.9536424 358.004768,85.7417219 354.93683,81.2538631 C351.868892,76.7660044 345.733015,74.6401766 336.765197,74.6401766 Z" id="Cop" fill="#2A384E"></path>
                <path d="M465.033748,36.5984252 L465.033748,85.9685039 L505.666075,85.9685039 C516.769094,85.9685039 522.202487,77.9370079 522.202487,61.8740157 C522.202487,45.1023622 516.769094,36.5984252 506.138544,36.5984252 L465.033748,36.5984252 Z M465.033748,117.385827 L465.033748,168.645669 L427,168.645669 L427,4 L519.367673,4 C547.952043,4 564.015986,25.9685039 564.015986,61.8740157 C564.015986,77.7007874 560,90.9291339 552.204263,101.559055 C544.408526,112.188976 533.541741,117.385827 519.131439,117.385827 L465.033748,117.385827 Z M689.220249,91.4015748 L689.220249,162.503937 C671.975133,168.88189 652.840142,171.952756 631.815275,171.952756 C611.735346,171.952756 598.269982,169.11811 590.946714,163.685039 C583.623446,158.251969 580.079929,147.622047 580.079929,131.795276 C580.079929,115.968504 583.85968,105.574803 591.419183,100.377953 C599.21492,94.9448819 611.026643,92.3464567 627.326821,92.3464567 C635.595027,92.3464567 644.808171,93.2913386 654.730018,95.4173228 C654.730018,86.6771654 653.076377,81.007874 649.53286,78.1732283 C646.225577,75.3385827 638.902309,73.9212598 627.326821,73.9212598 C614.806394,73.9212598 602.285968,75.8110236 589.765542,79.5905512 L584.095915,50.7716535 C600.868561,46.519685 618.113677,44.3937008 636.067496,44.3937008 C673.628774,44.3937008 689.220249,56.4409449 689.220249,91.4015748 Z M654.730018,141.716535 L654.730018,118.80315 C650.477798,117.622047 643.863233,117.149606 635.122558,117.149606 C621.184725,117.149606 617.404973,119.275591 617.404973,130.614173 C617.404973,142.897638 620.476021,145.023622 634.650089,145.023622 C642.209591,145.023622 648.824156,143.84252 654.730018,141.716535 Z M789.856128,47.9370079 L826,47.9370079 C809.699822,104.866142 788.674956,160.377953 762.689165,214 L722.765542,214 C728.671403,204.07874 735.285968,190.850394 742.609236,174.551181 C731.269982,133.685039 717.332149,91.4015748 701.031972,47.9370079 L737.648313,47.9370079 C746.861456,72.2677165 755.838366,100.141732 764.106572,132.031496 C775.918295,98.2519685 784.422735,70.3779528 789.856128,47.9370079 Z" id="Pay" fill="#2C77BD"></path>
            </g>
        </g>
    </g>
</svg>
